X: 182134
T: Raymore
C: Joe Liddy
Z: BB
S: "The Leitrim Fiddler" (Dublin 1981)
L: 1/8
M: 4/4
R: reel
Q: 1/4 = 180
K: G
GB | d2 BG ABGA | BGAG EG D2 | B2 (3cBA GABd | gedB A2 Bd |
eged edBG | BGAG EG D2 | Bded BGAB | GEDE G2 :|
Bd | g2 ag edBd | gefd edBd | e2eg edBA | GABG A2 Bd |
eg (3agf gedB | edBA GE D2 | BdBA edBA | GEDE G2 :|
